X: 7259
T: Clare Shout, The
R: jig
M: 6/8
K: Cmajor
|:GEC CDC|CDC A,CG,|CEG ceg|age dcA|
GEC CDC|CDC A,CG,|A,DD DCD|1 ECB, C2E:|2 ECB, C2 D||
|:EGG AGC|EGG AGE|FCA, AFC|cAF dcA|
sEGG AGC|EGG AGE|FAc GED|1 ECB, C2 D:|2 ECB, CcA||

